X:1
T:THE FLOWER OF SWEET STRABANE
M:6/8
L:1/8
K:G
B,/2-D/2| E2 EE-D E| G2 G G,2 A,|B,-D B,A, A, A,-| A,3 z2 G,/2 G,/2|\
 A,2 B, D2 E| A3 G2A/2-B/2| A2 GE-D E| G3 z2 G,| A,2 B, D2 E| A3 G2A/2-B/2|\
 A2 GE-D E| G3E-F G| A2 G EDE| G2 G G,2 A,| B,DD/2-B,/2 A,2 A,| A,3 z2||\
